public/formular-icons/greece/var-epsilon.svg

<svg style="vertical-align:-.05ex" xmlns="http://www.w3.org/2000/svg" width="1.054ex" height="1.072ex" viewBox="0 -452 466 474" xmlns:xlink="http://www.w3.org/1999/xlink"><defs><path id="a" d="M190-22q-66 0-114 33t-49 96q0 67 70 125l10 7-8 9q-23 25-23 56 0 60 68 104t146 44h12q58 0 103-31 23-16 23-29 0-11-11-23t-26-13q-9 0-20 9t-33 18-55 9q-66 0-116-24t-51-60q0-19 17-36 9-9 12-10t12 2q31 14 81 14h5q65 0 65-31 0-41-85-41-46 0-81 13l-10-7q-64-43-64-100 0-73 133-73 52 0 85 10t42 23 17 22 17 11q14-2 14-17 0-9-11-26t-31-36-59-34-85-14Z"/></defs><g stroke="currentColor" fill="currentColor" stroke-width="0"><use data-c="1D700" xlink:href="#a" transform="scale(1 -1)"/></g></svg>

<svg style="vertical-align: -0.05ex" xmlns="http://www.w3.org/2000/svg" width="1.054ex" height="1.072ex" role="img" focusable="false" viewBox="0 -452 466 474" xmlns:xlink="http://www.w3.org/1999/xlink"><defs><path id="MJX-93-TEX-I-1D700" d="M190 -22Q124 -22 76 11T27 107Q27 174 97 232L107 239L99 248Q76 273 76 304Q76 364 144 408T290 452H302Q360 452 405 421Q428 405 428 392Q428 381 417 369T391 356Q382 356 371 365T338 383T283 392Q217 392 167 368T116 308Q116 289 133 272Q142 263 145 262T157 264Q188 278 238 278H243Q308 278 308 247Q308 206 223 206Q177 206 142 219L132 212Q68 169 68 112Q68 39 201 39Q253 39 286 49T328 72T345 94T362 105Q376 103 376 88Q376 79 365 62T334 26T275 -8T190 -22Z"></path></defs><g stroke="currentColor" fill="currentColor" stroke-width="0" transform="scale(1,-1)"><g data-mml-node="math"><g data-mml-node="mi"><use data-c="1D700" xlink:href="#MJX-93-TEX-I-1D700"></use></g></g></g></svg>
